X: 23
T: Acemaşîrân Seyir
C: Rauf Yektâ
O: Turkey
F: http://compmusic.upf.edu/node/140
N: acemasiran--seyir--semai--1--rauf_yekta
N: makam= acemasiran
N: form= seyir
N: usul= semai = 3/4
M: 3/4
L: 1/16
K: C _B   
Q: 1/4=120
%%MIDI tuningsystem comma53
f8 e4  | f8 g4  | a8 g4  | f8 e4  | d8 e4  | f4 e4 d4  | \
w:   |   |   |   |   |   | 
c4 d4 e4  | f8 z4  | g8 a4  | a8 a4  | 
w:   |   |   |   | 
a4 b4 a4  | g8 d'4  | c'8 b4  | a8 g4  | g4 f4 e4  | \
w:   |   |   |   |   | 
f8 z4  | e4 f4 g4  | a8 g4  | g8 f4  | 
w:   |   |   |   | 
e8 d4  | A4 B4 c4  | d8 c4  | c8 B4  | A8 G4  | \
w:   |   |   |   |   | 
F8 G4  | A4 B4 d4  | c8 B4  | A8 F4  | G8 A4  | 
w:   |   |   |   |   | 
G4 F4 E4  | F12  | F4 z8  | |


